X:279
T:Reel 279
M:4/4
K:Gmaj
L:1/8
d>e (3fed eAA2|e>A (3AAA e>A (3cAA |c>A (3AAA e2fg||afef gfef:||2afge d2fg|agab c'2ac'|bc'af gfed|ad'd'c' a2ag||afaf edBc:||2afge d2fg|ag (3fga c'2ge|
